X: 4044
T: MAY DAY
R: Strathspey.
%R: strathspey
B: James Kerr "Merry Melodies" v.4 p.07 #44
Z: 2016 John Chambers <jc:trillian.mit.edu>
M: C
L: 1/8
K: D
|:\
a<d a>f a<d a>f | a<d a>f g<e e>f |\
a<d a>f a<d a>f | g<b a>g (f<d) d2 ::\
d2 (A<F) d2 (A<F) | d2 (A<F) (G<E) E2 |\
d2 (A<F) d2 (A<F) | G<B A>G (F<D) D2 |]

%%sep 1 1 500
%%sep 1 1 500

